src/assets/icons/letters,fancy,sans-g.svg

<svg width="48" height="48" viewBox="0 0 48 48" fill="none" xmlns="http://www.w3.org/2000/svg">
<g clip-path="url(#clip0_86:77)">
<path d="M29.6033 18.3125H35.8533C35.0579 12.5597 29.9869 8.51136 23.4102 8.51136C15.7255 8.51136 9.8022 14.0511 9.8022 23.483C9.8022 32.6875 15.342 38.3977 23.538 38.3977C30.8817 38.3977 36.1232 33.7528 36.1232 26.0966V22.4318H23.9499V27.0625H30.1999C30.1147 30.6705 27.6573 32.9574 23.5664 32.9574C18.9499 32.9574 16.038 29.5057 16.038 23.4261C16.038 17.375 19.0636 13.9517 23.5096 13.9517C26.6772 13.9517 28.8221 15.5852 29.6033 18.3125Z" fill="black"/>
</g>
<defs>
<clipPath id="clip0_86:77">
<rect width="48" height="48" fill="white"/>
</clipPath>
</defs>
</svg>

<svg xmlns="http://www.w3.org/2000/svg" width="48" height="48" fill="none" viewBox="0 0 48 48">
  <g clip-path="url(#clip0_86:77)">
    <path fill="#000" d="M29.603 18.313h6.25C35.058 12.56 29.987 8.51 23.41 8.51c-7.684 0-13.608 5.54-13.608 14.972 0 9.204 5.54 14.915 13.736 14.915 7.344 0 12.585-4.645 12.585-12.301v-3.665H23.95v4.63h6.25c-.085 3.608-2.543 5.895-6.634 5.895-4.616 0-7.528-3.451-7.528-9.53 0-6.052 3.026-9.475 7.472-9.475 3.167 0 5.312 1.633 6.093 4.36z"/>
  </g>
  <defs>
    <clipPath id="clip0_86:77">
      <path fill="#fff" d="M0 0h48v48H0z"/>
    </clipPath>
  </defs>
</svg>
